places/64/folder-root.svg

<svg height="64" width="64" xmlns="http://www.w3.org/2000/svg">
    <linearGradient id="a" gradientUnits="userSpaceOnUse" x1="3" x2="3" y1="58" y2="16">
        <stop offset="0" stop-color="#3daee9"/>
        <stop offset="1" stop-color="#6cc1ef"/>
    </linearGradient>
    <path d="M4 6v27c0 .554.446 1 1 1h54c.554 0 1-.446 1-1V11.01l-.002-.01H60v-1H32l-4-4z" fill="#147eb8"/>
    <path d="M3 20v38h58V16H26l-4 4z" fill="url(#a)"/>
    <g fill-opacity=".235">
        <path d="M3 20v1h20l3-5-4 4zM28 6l3 5h29v-1H32z" fill="#fff"/>
        <path d="M4 19v1h18l4-4-6 3zM3 57v1h58v-1z" fill="#000"/>
    </g>
    <path d="M34 27h-2L22 47h2zm-2 19h10v1H32z" fill="#1272a5"/>
</svg>

<svg xmlns="http://www.w3.org/2000/svg" viewBox="0 0 64 64">
  <defs id="defs3051">
    <style type="text/css" id="current-color-scheme">
      .ColorScheme-Text {
        color:#232629;
      }
      .ColorScheme-Highlight {
        color:#3daee9;
      }
      </style>
  </defs>
 <path 
     style="fill:currentColor" 
     d="M 4 6 L 4 11 L 4 20 L 3 20 L 3 21 L 3 21 C 3 21 3 21 3 21 L 3 57 L 3 58 L 4 58 L 60 58 L 61 58 L 61 57 L 61 21 L 61 21 L 61 16 L 60 16 L 60 11 C 60 11 60 11 60 11 L 60 11 L 60 10 L 32 10 L 28 6 L 4 6 z "
     class="ColorScheme-Highlight"
     />
 <path 
     style="fill-opacity:0.33"
     d="M 4 6 L 4 11 L 4 20 L 22 20 L 26 16 L 60 16 L 60 11 C 60 11 60 11 60 11 L 60 11 L 60 10 L 32 10 L 28 6 L 4 6 z "
     />
 <path 
     style="fill:#ffffff;fill-opacity:0.2"
     d="M 28 6 L 31 11 L 33 11 L 60 11 L 60 10 L 33 10 L 32 10 L 28 6 z M 26 16 L 22 20 L 3 20 L 3 21 L 23 21 L 26 16 z "
     />
 <path 
     style="fill-opacity:0.2;fill-rule:evenodd"
     d="M 26 16 L 20 19 L 4 19 L 4 20 L 22 20 L 26 16 z M 3 57 L 3 58 L 4 58 L 60 58 L 61 58 L 61 57 L 60 57 L 4 57 L 3 57 z "
     class="ColorScheme-Text"
     />
 <path 
     style="fill:currentColor;fill-opacity:0.6;stroke:none"  
     d="M 32 27 L 22 47 L 24 47 L 34 27 L 32 27 z M 32 46 L 32 47 L 42 47 L 42 46 L 32 46 z "
     class="ColorScheme-Text"
     />
</svg>
